F[ERK2
CUT[HIEZT HAB I MEIN TREUHEIT]
REG[Europa, Mitteleuropa, Oesterreich]
KEY[E0723  08  G 3/4]
MEL[5_  5_536_  4_42
    -7_  2_2-53_  1_
    1234  5_536_  4_42
    -7_  2_2-53_  1_0_ //] >>
FCT[Liebes - Lied, Leid, Klage]
